X:1
T:C Major Louis Bourgeois, 1560 Harmonized by Thomas Ravesncroft, 1621
T:Thomas Beccon, 1565 88. 88. (L. M.)
T:Psalm Before Evening Prayer No copyright. Transcribed from Ravenscroft, The Whole Booke of Psalmes, 1621.
%%score [ ( 1 2 ) ( 3 4 ) ]
L:1/8
M:12/4
K:C
V:1 treble nm="Soprano\nAlto" snm="S.\nA."
V:2 treble 
V:3 bass nm="Tenor\nBass" snm="T.\nB."
V:4 bass 
V:1
 c4 c2 B2 A2 G2 c4 d4 e4 || e4 e2 e2 d2 c2 f4 e4 d4 || c4 d2 e2 d2 c2 A4 B4 c4 || %3
 g4 e2 c2 d2 f2 e4 d4 c16 |] %4
V:2
 G4 G2 G2 A2 G2 E2 c3 B/A/ B2 c4 || G4 G2 c2 B2 A4 c4 c2 B4 || G4 G2 G2 G2 E2 F>G A2 G4 G4 || %3
w: 1.~Be- hold, now give heed, such * as * * be|The Lord's ser- vants faith- ful and true:|1.~Come praise the Lord ev- ery * * de- gree,|
w: 2.~O ye that stand in the * Lord's * * house,|E- ven in our own God's man- sion,|2.~Praise ye the Lord so boun- * * te- ous,|
w: 3.~Lift your hands in His ho- * ly * * place,|Yea, and that in the time of night,|3.~Praise ye the Lord that giv'th * * all grace,|
w: 4.~Then shall the Lord out of * Zi- * * on,|Which made heav'n and earth by His power,|4.~Give un- to you and your * * na- tion,|
 E2 G2 A4 A2 c2 c3 B A2 B2 x16 |] %4
w: With * such songs as to * Him are|
w: Which * work- eth out our * sal- va-|
w: For * He is a Lord * of great|
w: His * bles- sing, mer- cy, * and fa-|
V:3
 E,4 E,2 D,2 D,2 G,4 E,F, G,4 G,4 || z2 C,2 E,>F, G,2 G,2 E,2 A,4 G,4 G,4 || %2
 E,4 G,2 C,2 B,,2 C,4 F,2 E,2 D,2 E,4 || z2 E,2 C,D, E,2 F,G, A,4 (G,3 F,) D,2 E,16 |] %4
V:4
 C,4 E,2 G,,2 F,,2 E,,2 A,,4 G,,4 C,4 || C,4 C,2 C,2 G,,2 A,,2 F,,>G,,A,,B,, C,2 C,2 G,,4 || %2
 z2 C,2 B,,2 C,2 G,,2 A,,2 F,,4 G,,4 C,4 || C,2 C,3 B,,A,,G,,F,>E, D,2 C,>D,E,F,, G,,4 C,16 |] %4

